X:195
T: Gullane Polka #1
S: "Johnny O'Leary of Sliabh Luachra" (#45)
Z: B.Black
L: 1/8
M: 2/4
Q: 280
R: polka
K: D
d2 BA|DF G/F/E/D/|CE GE|BA FA|
Ad cB/A/|DF G/F/E/D/|CE GC|ED D2 :|
F2 GF/G/|BA FD/F/|A2 GE|BA FD|
FE/F/ GE|BA FE/F/|AF GE|ED D2 :|
